svgs/apkextractor.svg

<svg width="24" height="24" viewBox="0 0 24 24" fill="none" xmlns="http://www.w3.org/2000/svg">
<path d="M6.16299 12.6471V17.3132C6.16299 17.6725 6.39733 18.0422 6.75666 18.0422H8.24606V20.7502C8.24606 21.4428 8.80328 22.0001 9.4959 22.0001C10.1885 22.0001 10.7457 21.4428 10.7457 20.7502V18.0422H13.2975V20.7502C13.2975 21.1408 13.4746 21.4897 13.7558 21.7189C13.9589 21.8959 14.2297 22.0001 14.5213 22.0001H14.5473C15.24 22.0001 15.7972 21.4428 15.7972 20.7502V18.0422H17.2345C17.599 18.0422 17.8282 17.6725 17.8282 17.3184V8.66843H6.16299V12.6471ZM19.9112 7.83521C19.2186 7.83521 18.6614 8.39243 18.6614 9.08505V14.0844C18.6614 14.777 19.2186 15.3343 19.9112 15.3343C20.6039 15.3343 21.1611 14.777 21.1611 14.0844V9.08505C21.1611 8.39243 20.6039 7.83521 19.9112 7.83521ZM4.07992 7.83521C3.3873 7.83521 2.83008 8.39243 2.83008 9.08505V14.0844C2.83008 14.777 3.3873 15.3343 4.07992 15.3343C4.77254 15.3343 5.32976 14.777 5.32976 14.0844V9.08505C5.32976 8.39243 4.77254 7.83521 4.07992 7.83521Z" fill="black"/>
<path d="M14.8703 3.30967L15.8337 2.16919C15.8546 2.14315 15.8233 2.08587 15.766 2.039C15.7087 1.99734 15.641 1.98692 15.6254 2.01817L14.6256 3.20552C13.9173 2.9243 13.0528 2.74724 11.9905 2.74724C10.9229 2.74203 10.0532 2.91389 9.34497 3.18989L8.35552 2.02338C8.33469 1.99734 8.27219 2.00254 8.21491 2.04421C8.15762 2.08587 8.12638 2.13794 8.14721 2.1744L9.10021 3.29926C6.59011 4.38766 6.21516 7.05919 6.16309 7.84034H17.8074C17.7606 7.05399 17.3908 4.4189 14.8703 3.30967V3.30967ZM9.4335 5.90309C9.04814 5.90309 8.73047 5.59063 8.73047 5.21047C8.73047 4.83031 9.04293 4.51785 9.4335 4.51785C9.81887 4.51785 10.1365 4.83031 10.1365 5.21047C10.1365 5.59063 9.82408 5.90309 9.4335 5.90309ZM14.5579 5.90309C14.1725 5.90309 13.8548 5.59063 13.8548 5.21047C13.8548 4.83031 14.1673 4.51785 14.5579 4.51785C14.9432 4.51785 15.2609 4.83031 15.2609 5.21047C15.2609 5.59063 14.9432 5.90309 14.5579 5.90309Z" fill="black"/>
</svg>

<svg xmlns="http://www.w3.org/2000/svg" width="24" height="24" fill="none" viewBox="0 0 24 24"><path fill="#000" d="M6.163 12.647v4.666c0 .36.234.73.594.73h1.49v2.707c0 .693.556 1.25 1.249 1.25.692 0 1.25-.557 1.25-1.25v-2.708h2.551v2.708c0 .39.178.74.459.969.203.177.474.281.765.281h.026c.693 0 1.25-.557 1.25-1.25v-2.708h1.438c.364 0 .593-.37.593-.724v-8.65H6.163v3.98Zm13.748-4.812c-.692 0-1.25.557-1.25 1.25v5c0 .692.558 1.25 1.25 1.25.693 0 1.25-.558 1.25-1.25v-5c0-.693-.557-1.25-1.25-1.25m-15.831 0c-.693 0-1.25.557-1.25 1.25v5c0 .692.557 1.25 1.25 1.25s1.25-.558 1.25-1.25v-5c0-.693-.557-1.25-1.25-1.25M14.87 3.31l.964-1.14c.02-.027-.01-.084-.068-.131-.057-.042-.125-.052-.14-.02l-1 1.187c-.709-.282-1.573-.459-2.635-.459-1.068-.005-1.938.167-2.646.443l-.99-1.167c-.02-.026-.083-.02-.14.021-.057.042-.089.094-.068.13L9.1 3.3C6.59 4.388 6.215 7.06 6.163 7.84h11.644c-.046-.786-.416-3.421-2.937-4.53M9.434 5.903a.701.701 0 0 1-.704-.693c0-.38.313-.692.704-.692.385 0 .703.312.703.692 0 .38-.313.693-.703.693m5.124 0a.701.701 0 0 1-.703-.693c0-.38.312-.692.703-.692.385 0 .703.312.703.692 0 .38-.318.693-.703.693"/></svg>
